X:64
T:Boys of Bluehill, The
C:Joe Buchanan's Scottish Tome - Page 244.1
I:244 1
Z:Carl Allison
R:Hornpipe
L:1/8
M:4/4
K:D
|:(d>A) | "D"B>AF>A D2 (F>A) | "Em"BA ((3Bcd) "A7"e2 d>e | "D"f>ga>f "A7"e>gf>e | "Bm"d>fe>d "G"B2 (d>A) |
"D"B>AF>A D2 (F>A) | "Em"BA ((3Bcd) "A7"e2 d>e | "D"f>ga>f "A7"e>gf>e | "D"d2 f2 d2 :|
(f>g) | "D"a>fd>f a2 "B7"(g>f) | "Em"e>fg>a "A7"b2 (a>g) | "D"f>ga>f "A7"e>gf>e | "Bm"d>fe>d "G"B2 (d>A) |
"D"B>AF>A D2 (F>A) | "Em"B>A ((3Bcd) "A7"e2 d>e | "D"f>ga>f "A7"e>gf>e | "D"d2 f2 "D"d2 :|

